images/ic_token_ieth.svg

<svg height="250" viewBox="0 0 250 250" width="250" xmlns="http://www.w3.org/2000/svg" xmlns:xlink="http://www.w3.org/1999/xlink"><linearGradient id="a" gradientUnits="userSpaceOnUse" x1="233.74988129656" x2="33.74998369656" y1="233.74988129656" y2="33.74998369656"><stop offset=".159375" stop-color="#003cda"/><stop offset="1" stop-color="#33dfcc"/></linearGradient><path d="m125 48.203125c15.1875 0 30.039062 4.503906 42.664062 12.941406 12.632813 8.441407 22.476563 20.433594 28.289063 34.464844 5.8125 14.035156 7.332031 29.476563 4.367187 44.375-2.960937 14.894531-10.277343 28.578125-21.015624 39.320313-10.742188 10.738281-24.425782 18.054687-39.320313 21.015624-14.898437 2.964844-30.339844 1.445313-44.375-4.367187-14.03125-5.8125-26.023437-15.65625-34.464844-28.289063-8.4375-12.625-12.941406-27.476562-12.941406-42.664062.027344-20.359375 8.125-39.878906 22.523437-54.273438 14.394532-14.398437 33.914063-22.496093 54.273438-22.523437zm0-48.203125c-24.722656 0-48.890625 7.332031-69.445312 21.066406-20.558594 13.734375-36.578126 33.257813-46.039063 56.097656-9.4609375 22.839844-11.9375 47.976563-7.113281 72.222657 4.824218 24.246093 16.726562 46.519531 34.210937 64.003906 17.480469 17.480469 39.753907 29.382813 64 34.207031 24.246094 4.824219 49.382813 2.347656 72.222657-7.113281 22.839843-9.460937 42.363281-25.484375 56.097656-46.039063 13.734375-20.554687 21.066406-44.722656 21.066406-69.445312 0-33.152344-13.171875-64.945312-36.609375-88.386719-23.445313-23.445312-55.238281-36.613281-88.390625-36.613281zm0 0" fill="url(#a)"/><path d="m125 223.632812c53.933594 0 97.65625-43.722656 97.65625-97.65625 0-53.933593-43.722656-97.65625-97.65625-97.65625s-97.65625 43.722657-97.65625 97.65625c0 53.933594 43.722656 97.65625 97.65625 97.65625zm0 0" fill="#fff"/><path d="m180.03125 181.59375c-7.269531 7.285156-15.929688 13.03125-25.464844 16.898438-9.535156 3.863281-19.75 5.765624-30.035156 5.59375-10.226562.199218-20.382812-1.695313-29.855469-5.5625-9.46875-3.867188-18.054687-9.625-25.226562-16.929688-7.335938-7.15625-13.125-15.746094-17.007813-25.238281-3.878906-9.492188-5.769531-19.679688-5.550781-29.933594 0-22.457031 7.519531-41.164063 22.558594-56.121094 7.179687-7.289062 15.761719-13.039062 25.234375-16.898437 9.46875-3.855469 19.625-5.742188 29.847656-5.535156 10.28125-.179688 20.492188 1.714843 30.027344 5.570312s18.199218 9.589844 25.472656 16.863281c15.386719 14.957031 23.078125 33.664063 23.078125 56.121094.203125 10.296875-1.75 20.523437-5.722656 30.023437-3.972657 9.5-9.886719 18.066407-17.355469 25.148438zm0 0" fill="#c8c8c8"/><path d="m125 72.40625-31.25 53.25 31.25-14.59375zm0 0" fill="#8b8b8b"/><path d="m125 111.0625-31.25 14.59375 31.25 18.960938zm0 0" fill="#393939"/><path d="m125 72.40625v38.65625l31.21875 14.59375zm0 0" fill="#343434"/><path d="m125 111.0625v33.554688l31.21875-18.960938zm0 0" fill="#161616"/><path d="m93.75 131.734375 31.25 45.234375v-26.257812zm0 0" fill="#8b8b8b"/><path d="m156.25 131.734375-31.25 18.976563v26.257812zm0 0" fill="#343434"/></svg>

<svg xmlns="http://www.w3.org/2000/svg" xmlns:xlink="http://www.w3.org/1999/xlink" width="250px" height="250px" viewBox="0 0 250 250" version="1.1">
<defs>
<linearGradient id="linear0" gradientUnits="userSpaceOnUse" x1="239.360001" y1="239.360001" x2="34.560001" y2="34.560001" gradientTransform="matrix(0.976562,0,0,0.976562,0,0)">
<stop offset="0.159375" style="stop-color:rgb(0%,23.529412%,85.490197%);stop-opacity:1;"/>
<stop offset="1" style="stop-color:rgb(20%,87.450981%,80.000001%);stop-opacity:1;"/>
</linearGradient>
</defs>
<g id="surface1">
<path style=" stroke:none;fill-rule:nonzero;fill:url(#linear0);" d="M 125 48.203125 C 140.1875 48.203125 155.039062 52.707031 167.664062 61.144531 C 180.296875 69.585938 190.140625 81.578125 195.953125 95.609375 C 201.765625 109.644531 203.285156 125.085938 200.320312 139.984375 C 197.359375 154.878906 190.042969 168.5625 179.304688 179.304688 C 168.5625 190.042969 154.878906 197.359375 139.984375 200.320312 C 125.085938 203.285156 109.644531 201.765625 95.609375 195.953125 C 81.578125 190.140625 69.585938 180.296875 61.144531 167.664062 C 52.707031 155.039062 48.203125 140.1875 48.203125 125 C 48.230469 104.640625 56.328125 85.121094 70.726562 70.726562 C 85.121094 56.328125 104.640625 48.230469 125 48.203125 Z M 125 0 C 100.277344 0 76.109375 7.332031 55.554688 21.066406 C 34.996094 34.800781 18.976562 54.324219 9.515625 77.164062 C 0.0546875 100.003906 -2.421875 125.140625 2.402344 149.386719 C 7.226562 173.632812 19.128906 195.90625 36.613281 213.390625 C 54.09375 230.871094 76.367188 242.773438 100.613281 247.597656 C 124.859375 252.421875 149.996094 249.945312 172.835938 240.484375 C 195.675781 231.023438 215.199219 215 228.933594 194.445312 C 242.667969 173.890625 250 149.722656 250 125 C 250 91.847656 236.828125 60.054688 213.390625 36.613281 C 189.945312 13.167969 158.152344 0 125 0 Z M 125 0 "/>
<path style=" stroke:none;fill-rule:nonzero;fill:rgb(100%,100%,100%);fill-opacity:1;" d="M 125 223.632812 C 178.933594 223.632812 222.65625 179.910156 222.65625 125.976562 C 222.65625 72.042969 178.933594 28.320312 125 28.320312 C 71.066406 28.320312 27.34375 72.042969 27.34375 125.976562 C 27.34375 179.910156 71.066406 223.632812 125 223.632812 Z M 125 223.632812 "/>
<path style=" stroke:none;fill-rule:nonzero;fill:rgb(78.431374%,78.431374%,78.431374%);fill-opacity:1;" d="M 180.03125 181.59375 C 172.761719 188.878906 164.101562 194.625 154.566406 198.492188 C 145.03125 202.355469 134.816406 204.257812 124.53125 204.085938 C 114.304688 204.285156 104.148438 202.390625 94.675781 198.523438 C 85.207031 194.65625 76.621094 188.898438 69.449219 181.59375 C 62.113281 174.4375 56.324219 165.847656 52.441406 156.355469 C 48.5625 146.863281 46.671875 136.675781 46.890625 126.421875 C 46.890625 103.964844 54.410156 85.257812 69.449219 70.300781 C 76.628906 63.011719 85.210938 57.261719 94.683594 53.402344 C 104.152344 49.546875 114.308594 47.660156 124.53125 47.867188 C 134.8125 47.6875 145.023438 49.582031 154.558594 53.4375 C 164.09375 57.292969 172.757812 63.027344 180.03125 70.300781 C 195.417969 85.257812 203.109375 103.964844 203.109375 126.421875 C 203.3125 136.71875 201.359375 146.945312 197.386719 156.445312 C 193.414062 165.945312 187.5 174.511719 180.03125 181.59375 Z M 180.03125 181.59375 "/>
<path style=" stroke:none;fill-rule:nonzero;fill:rgb(54.509807%,54.509807%,54.509807%);fill-opacity:1;" d="M 125 72.40625 L 93.75 125.65625 L 125 111.0625 Z M 125 72.40625 "/>
<path style=" stroke:none;fill-rule:nonzero;fill:rgb(22.352941%,22.352941%,22.352941%);fill-opacity:1;" d="M 125 111.0625 L 93.75 125.65625 L 125 144.617188 Z M 125 111.0625 "/>
<path style=" stroke:none;fill-rule:nonzero;fill:rgb(20.392157%,20.392157%,20.392157%);fill-opacity:1;" d="M 125 72.40625 L 125 111.0625 L 156.21875 125.65625 Z M 125 72.40625 "/>
<path style=" stroke:none;fill-rule:nonzero;fill:rgb(8.627451%,8.627451%,8.627451%);fill-opacity:1;" d="M 125 111.0625 L 125 144.617188 L 156.21875 125.65625 Z M 125 111.0625 "/>
<path style=" stroke:none;fill-rule:nonzero;fill:rgb(54.509807%,54.509807%,54.509807%);fill-opacity:1;" d="M 93.75 131.734375 L 125 176.96875 L 125 150.710938 Z M 93.75 131.734375 "/>
<path style=" stroke:none;fill-rule:nonzero;fill:rgb(20.392157%,20.392157%,20.392157%);fill-opacity:1;" d="M 156.25 131.734375 L 125 150.710938 L 125 176.96875 Z M 156.25 131.734375 "/>
</g>
</svg>
